X: 1
T: John Anderson's Reel
C: Bobby Frew
R: reel
Z: 2005 John Chambers <jc:trillian.mit.edu>
M: C|
L: 1/8
K: A
   E2 \
| "A"A2Ac "E7"B2Bd | "A"ceag aece | "D"d2fd "A"c2ec | "B7"Be^df "E7"e=dcB |
| "A"A2Ac "E7"B2Bd | "A"ceag aece | "D"dfed "A"cedc | "E7"BdcB "A"A2 :|
|: cd \
| "A"e2ef edcB | "A"ABcd e2dc | "D"d2de "Bm"dcBA | "E7"GABc d2cd |
| "A"e2ef edcB | "F#m"ABcd e2cA | "Bm"dfed "A"cedc | "E7"BdcB "A"A2 :|
